64x64/apps/devassistant.svg

<svg height="64" width="64" xmlns="http://www.w3.org/2000/svg"><path d="m60 57v-44c0-4-4-4-4-4h-52zm-10-21.742-18.965-16.258h18.965z" opacity=".2"/><path d="m60 57-2.332-2h-49.668s-4 0-4-4v2c0 4 4 4 4 4zm-27.036-12-18.964-16.4v2l16.633 14.258h2.332z" opacity=".2"/><path d="m60 56v-44c0-4-4-4-4-4h-52zm-10-21.742-18.965-16.258h18.965z" fill="#3e50b4"/><path d="m4 8v44c0 4 4 4 4 4h52zm10 21.742 18.965 16.258h-18.965z" fill="#02a8f3"/><g fill="#f4f4f7"><path d="m60 56v-44c0-4-4-4-4-4h-52zm-10-21.742-18.965-16.258h18.965z" opacity=".2"/><path d="m4 8 1.166 1h50.834s4 0 4 4v-1c0-4-4-4-4-4zm27.035 11 18.965 16.258v-1l-17.799-15.258z" opacity=".2"/></g></svg>

<svg xmlns="http://www.w3.org/2000/svg" width="64" height="64"><path style="opacity:.2" d="M60 57V13c0-4-4-4-4-4H4l56 48zM50 35.258 31.035 19H50v16.258z"/><path style="opacity:.2" d="m60 57-2.332-2H8s-4 0-4-4v2c0 4 4 4 4 4h52zM32.964 45 14 28.6v2l16.633 14.258h2.332z"/><path style="fill:#3e50b4" d="M60 56V12c0-4-4-4-4-4H4l56 48zM50 34.258 31.035 18H50v16.258z"/><path style="fill:#02a8f3" d="M4 8v44c0 4 4 4 4 4h52L4 8zm10 21.742L32.965 46H14V29.742z"/><path style="fill:#f4f4f7;opacity:.2" d="M60 56V12c0-4-4-4-4-4H4l56 48zM50 34.258 31.035 18H50v16.258z"/><path style="fill:#f4f4f7;opacity:.2" d="m4 8 1.166 1H56s4 0 4 4v-1c0-4-4-4-4-4H4zm27.035 11L50 35.258v-1L32.201 19h-1.166z"/></svg>
